icons/desktop/16/svg/firefox-bridge-16.svg

<svg width="16" height="16" viewBox="0 0 16 16" fill="none" xmlns="http://www.w3.org/2000/svg">
<g clip-path="url(#clip0_8069_32597)">
<path d="M15.8799 11.9089L13.6909 9.7199C13.4339 9.4629 12.9939 9.6449 12.9939 10.0089V11.0089C10.4319 11.1899 8.33094 13.0399 7.80994 15.4929C7.71894 15.9189 8.26394 16.1879 8.52694 15.8409C9.56694 14.4719 11.1719 13.5649 12.9939 13.4449V14.3859C12.9939 14.7499 13.4339 14.9319 13.6909 14.6749L15.8799 12.4859C16.0389 12.3269 16.0389 12.0679 15.8799 11.9089Z" fill="black"/>
<path d="M6.41995 13.8001C6.55795 13.8001 6.68595 13.7861 6.81895 13.7781C7.69695 11.8121 9.42295 10.3141 11.5139 9.74609C11.6069 9.07509 12.0529 8.51809 12.6569 8.25909C12.6619 8.21209 12.6689 8.16209 12.6709 8.11909C12.7479 6.51509 12.4739 5.04709 11.3169 3.99709C11.2869 3.97009 11.2189 3.94509 11.1759 3.98209C11.1179 4.03209 11.1419 4.08509 11.1609 4.12509C11.2309 4.27109 11.4569 4.72709 11.6059 5.58509C11.5689 5.37109 10.9679 4.36609 10.6319 3.97209C10.2389 3.51309 9.30695 2.50409 9.11895 2.26109C8.74295 1.77409 8.55195 1.31309 8.43595 1.09809C8.40995 1.05109 8.36595 1.01609 8.31495 1.00409C8.26195 0.992093 8.20695 1.00409 8.16195 1.03509C7.92795 1.20309 7.33095 1.65909 6.85095 2.28009C6.36595 2.90609 6.01295 3.79109 6.04595 4.29209C6.04895 4.33909 6.06995 4.38209 6.10595 4.41309C6.14495 4.44609 6.20095 4.46309 6.24695 4.45909C6.61895 4.43509 8.08995 4.41609 9.14295 6.00009C9.07095 5.89109 8.64195 5.74309 8.48795 5.69909C8.35095 5.66009 8.11995 5.62209 8.07295 5.78409C8.03895 5.90209 8.09295 5.96209 8.13495 5.99909C8.45395 6.27509 9.14995 7.23909 8.92695 8.39309C8.70595 9.53509 7.74495 10.3941 6.46895 10.4461C5.55395 10.4771 4.66395 10.1051 4.05595 9.42909C3.68995 9.02209 3.49195 8.49609 3.54395 8.13609C3.68695 7.16209 5.43195 7.06609 5.68395 7.08409C5.68895 7.08409 5.69395 7.08409 5.69895 7.08409C5.93695 7.08409 6.26895 6.66409 6.35095 6.48809C6.37995 6.42509 6.37795 6.37709 6.34695 6.34609C6.31295 6.31209 6.14995 6.29909 5.90295 6.16609C5.37895 5.88509 4.50795 5.30809 4.25795 4.93009C4.18195 4.81509 4.15795 4.33109 4.19795 3.66709C4.20195 3.60009 4.17095 3.53809 4.11695 3.50109C4.05995 3.46309 3.98795 3.45709 3.92395 3.48709C3.53995 3.66809 3.14395 4.06509 2.88195 4.32709C2.80495 4.40409 2.71995 4.49009 2.67395 4.52809C2.54795 4.34709 2.48095 3.90209 2.48995 3.29109C2.49095 3.22109 2.45395 3.15609 2.39195 3.12009C2.32895 3.08409 2.25695 3.08509 2.19795 3.12209C0.659947 4.07109 -0.145053 6.18509 0.020947 8.39309C0.161947 10.2631 2.09195 13.8001 6.41795 13.8001H6.41995Z" fill="black"/>
</g>
<defs>
<clipPath id="clip0_8069_32597">
<rect width="16" height="16" fill="white"/>
</clipPath>
</defs>
</svg>

<!-- This Source Code Form is subject to the terms of the Mozilla Public
   - License, v. 2.0. If a copy of the MPL was not distributed with this
   - file, You can obtain one at http://mozilla.org/MPL/2.0/. -->
<svg xmlns="http://www.w3.org/2000/svg" width="16" height="16" fill="context-fill" fill-opacity="context-fill-opacity" viewBox="0 0 16 16">
    <g clip-path="url(#clip0_8069_32597)">
        <path d="m15.88 11.909-2.19-2.19a.408.408 0 0 0-.696.29v1a5.7 5.7 0 0 0-5.184 4.484c-.091.426.454.695.717.348a6.1 6.1 0 0 1 4.467-2.396v.94c0 .365.44.547.697.29l2.189-2.19a.41.41 0 0 0 0-.576M6.42 13.8c.138 0 .266-.014.399-.022a7.25 7.25 0 0 1 4.695-4.032 1.91 1.91 0 0 1 1.143-1.487c.005-.047.012-.097.014-.14.077-1.604-.197-3.072-1.354-4.122-.03-.027-.098-.052-.141-.015-.058.05-.034.103-.015.143.07.146.296.602.445 1.46-.037-.214-.638-1.219-.974-1.613-.393-.459-1.325-1.468-1.513-1.71-.376-.488-.567-.949-.683-1.164a.2.2 0 0 0-.121-.094.2.2 0 0 0-.153.031A6.6 6.6 0 0 0 6.85 2.28c-.485.626-.838 1.511-.805 2.012q.005.072.06.121c.039.033.095.05.141.046C6.619 4.435 8.09 4.416 9.143 6c-.072-.109-.501-.257-.655-.3-.137-.04-.368-.078-.415.084A.19.19 0 0 0 8.135 6c.319.276 1.015 1.24.792 2.394-.221 1.142-1.182 2.001-2.458 2.053A3.11 3.11 0 0 1 4.056 9.43c-.366-.407-.564-.933-.512-1.293.143-.974 1.888-1.07 2.14-1.052h.015c.238 0 .57-.42.652-.596q.043-.094-.004-.142c-.034-.034-.197-.047-.444-.18-.524-.28-1.395-.858-1.645-1.236-.076-.115-.1-.599-.06-1.263a.19.19 0 0 0-.081-.166.2.2 0 0 0-.193-.014c-.384.181-.78.578-1.042.84-.077.077-.162.163-.208.201-.126-.18-.193-.626-.184-1.237a.2.2 0 0 0-.098-.17.19.19 0 0 0-.194.001C.66 4.072-.145 6.185.021 8.393c.14 1.87 2.071 5.407 6.397 5.407z" />
    </g>
</svg>
